lib/flags/l/678.svg

<svg xmlns="http://www.w3.org/2000/svg" fill="none" viewBox="0 0 32 24"><mask id="678_svg__a" width="32" height="24" x="0" y="0" mask-type="alpha" maskUnits="userSpaceOnUse"><path fill="#fff" d="M0 0H32V24H0z"/></mask><g fill-rule="evenodd" clip-rule="evenodd" mask="url(#678_svg__a)"><path fill="#FBCD17" d="M0 0V24H32V0H0Z"/><path fill="#73BE4A" d="M0 0V8H32V0H0zM0 16V24H32V16H0z"/><path fill="#C51918" d="M0 0V24L10 12L0 0Z"/><path fill="#272727" d="M17.0018 13.8707 15.1311 15 15.5578 12.7962 14 11.1469 16.1094 11.0578 17.0018 9 17.8942 11.0578H20L18.4458 12.7962 18.9137 15 17.0018 13.8707zM25.0018 13.8707 23.1311 15 23.5578 12.7962 22 11.1469 24.1094 11.0578 25.0018 9 25.8942 11.0578H28L26.4458 12.7962 26.9137 15 25.0018 13.8707z"/></g></svg>

<svg xmlns="http://www.w3.org/2000/svg" fill="none" viewBox="0 0 32 24"><mask id="678_svg__a" width="32" height="24" x="0" y="0" maskUnits="userSpaceOnUse"><path fill="#fff" d="M0 0h32v24H0z"/></mask><g fill-rule="evenodd" clip-rule="evenodd" mask="url(#678_svg__a)"><path fill="#FBCD17" d="M0 0v24h32V0H0z"/><path fill="#73BE4A" d="M0 0v8h32V0H0zm0 16v8h32v-8H0z"/><path fill="#C51918" d="M0 0v24l10-12L0 0z"/><path fill="#272727" d="M17.002 13.87L15.132 15l.426-2.204L14 11.146l2.11-.088L17.001 9l.892 2.058H20l-1.554 1.738.468 2.204-1.912-1.13zm8 0L23.132 15l.426-2.204L22 11.146l2.11-.088L25.001 9l.892 2.058H28l-1.554 1.738.468 2.204-1.912-1.13z"/></g></svg>
